img/logo-interface20.svg

<svg width="152" height="19" viewBox="0 0 152 19" fill="none" xmlns="http://www.w3.org/2000/svg">
<path d="M4.59305 3.64955H0.46875V0.435303H4.59305V3.64955ZM0.46875 18.3744V4.98376H4.59305V18.3744H0.46875Z" fill="#737380"/>
<path d="M8.24427 18.3744V4.98376H12.3928V6.99721C13.1287 6.21286 13.9334 5.62257 14.8068 5.22635C15.6801 4.83012 16.6142 4.63201 17.6089 4.63201C18.7329 4.63201 19.7195 4.818 20.5687 5.18996C21.4178 5.56192 22.0728 6.09156 22.5338 6.77889C22.8168 7.20745 23.019 7.71284 23.1403 8.29504C23.2616 8.86916 23.3222 9.77076 23.3222 10.9999V18.3744H19.1737V11.8853C19.1737 10.3894 18.9553 9.36241 18.5186 8.80447C18.09 8.24652 17.342 7.96755 16.2745 7.96755C15.0696 7.96755 14.1194 8.30717 13.4239 8.98641C12.7365 9.65756 12.3928 10.5834 12.3928 11.764V18.3744H8.24427Z" fill="#737380"/>
<path d="M27.7255 1.45416H31.8741V4.98376H34.9794V8.13736H31.8741V13.8017C31.8741 14.6912 31.9509 15.2168 32.1046 15.3785C32.2663 15.5402 32.6464 15.6211 33.2448 15.6211H34.9794V18.8475H32.1773C30.5842 18.8475 29.444 18.5968 28.7566 18.0955C28.0692 17.586 27.7255 16.7612 27.7255 15.6211V8.13736H25.7726V4.98376H27.7255V1.45416Z" fill="#737380"/>
<path d="M41.0203 9.96887L47.7163 9.981C47.6435 9.14813 47.3079 8.49315 46.7094 8.01607C46.111 7.53898 45.3306 7.30044 44.3683 7.30044C43.414 7.30044 42.6337 7.54303 42.0271 8.0282C41.4287 8.50528 41.0931 9.15217 41.0203 9.96887ZM52.0953 14.0322C51.5454 15.5685 50.5911 16.7572 49.2325 17.5982C47.874 18.431 46.2202 18.8475 44.2713 18.8475C41.7967 18.8475 39.8356 18.2046 38.3881 16.9189C36.9486 15.6251 36.2289 13.8745 36.2289 11.667C36.2289 9.45944 36.9486 7.71688 38.3881 6.43927C39.8275 5.15357 41.7886 4.51072 44.2713 4.51072C46.851 4.51072 48.8363 5.17783 50.2272 6.51204C51.6263 7.83817 52.3258 9.73033 52.3258 12.1885V12.7586H40.899C40.9233 13.737 41.2387 14.5173 41.8452 15.0995C42.4598 15.6736 43.2685 15.9607 44.2713 15.9607C45.0557 15.9607 45.7309 15.7949 46.297 15.4634C46.8631 15.1238 47.2715 14.6467 47.5222 14.0322H52.0953Z" fill="#737380"/>
<path d="M58.9732 18.3744H54.8246V4.98376H58.9732V6.75463C59.604 5.99453 60.2509 5.43254 60.914 5.06867C61.5852 4.6967 62.2888 4.51072 63.0247 4.51072C63.1703 4.51072 63.4493 4.53498 63.8617 4.5835C64.0072 4.59158 64.1164 4.59967 64.1892 4.60776V8.13736C64.0517 8.12119 63.894 8.10906 63.7161 8.10097C63.5382 8.09289 63.2592 8.08884 62.8791 8.08884C61.6661 8.08884 60.7119 8.46889 60.0164 9.22899C59.3209 9.98909 58.9732 11.0403 58.9732 12.3826V18.3744Z" fill="#737380"/>
<path d="M67.8526 18.3744V8.13736H65.8996V4.98376H67.8526V3.64955C67.8526 2.50131 68.1922 1.68057 68.8715 1.18731C69.5589 0.685973 70.7032 0.435303 72.3044 0.435303H75.1065V3.64955H73.3718C72.8138 3.64955 72.4459 3.72232 72.268 3.86787C72.0901 4.00534 72.0011 4.28027 72.0011 4.69266V4.98376H75.1065V8.13736H72.0011V18.3744H67.8526Z" fill="#737380"/>
<path d="M88.2921 11.9217C87.7745 12.2047 86.7839 12.419 85.3202 12.5645C85.1423 12.5888 85.0088 12.605 84.9199 12.613C83.3591 12.7748 82.3725 12.9729 81.9601 13.2074C81.5477 13.4419 81.3414 13.8057 81.3414 14.299C81.3414 14.8165 81.5436 15.233 81.948 15.5483C82.3604 15.8556 82.9062 16.0092 83.5855 16.0092C84.9927 16.0092 86.1329 15.6736 87.0063 15.0025C87.8878 14.3313 88.3285 13.458 88.3285 12.3826C88.3285 12.2532 88.3245 12.1562 88.3164 12.0915C88.3164 12.0268 88.3083 11.9702 88.2921 11.9217ZM92.3436 16.2154C92.3436 16.741 92.3921 17.1453 92.4892 17.4283C92.5862 17.7033 92.748 17.9176 92.9744 18.0712V18.3744H88.4013L88.1951 16.9068C87.4753 17.5699 86.6626 18.0591 85.7569 18.3744C84.8511 18.6898 83.8039 18.8475 82.6151 18.8475C80.7713 18.8475 79.3197 18.4472 78.2604 17.6467C77.201 16.8461 76.6713 15.7626 76.6713 14.396C76.6713 13.1265 77.1484 12.1804 78.1027 11.5578C79.0569 10.9271 80.6945 10.5147 83.0154 10.3206C83.3227 10.2964 83.7513 10.2681 84.3012 10.2357C86.9699 10.0497 88.3042 9.53222 88.3042 8.68317C88.3042 8.17375 88.0455 7.7937 87.5279 7.54303C87.0184 7.29236 86.2502 7.16702 85.2231 7.16702C84.188 7.16702 83.4279 7.34896 82.9426 7.71284C82.4574 8.06863 82.2067 8.63061 82.1906 9.3988L77.86 9.41093V9.36241C77.86 7.78561 78.511 6.58482 79.813 5.76003C81.115 4.92716 82.9993 4.51072 85.4657 4.51072C86.6788 4.51072 87.7503 4.63201 88.6803 4.8746C89.6184 5.1091 90.4028 5.46084 91.0336 5.92984C91.5107 6.29372 91.8463 6.75463 92.0404 7.31257C92.2425 7.86243 92.3436 8.69935 92.3436 9.82332V16.2154Z" fill="#737380"/>
<path d="M111.206 12.9284C111.069 14.6912 110.252 16.1184 108.756 17.21C107.26 18.3016 105.351 18.8475 103.03 18.8475C100.572 18.8475 98.5948 18.1925 97.0987 16.8825C95.6107 15.5726 94.8667 13.8341 94.8667 11.667C94.8667 9.45136 95.6188 7.70475 97.123 6.42714C98.6352 5.14953 100.705 4.51072 103.334 4.51072C105.606 4.51072 107.405 4.99589 108.732 5.96623C110.058 6.92848 110.834 8.31525 111.061 10.1266H106.488C106.374 9.35028 106.023 8.75595 105.432 8.34356C104.85 7.92308 104.066 7.71284 103.079 7.71284C101.955 7.71284 101.053 8.07671 100.374 8.80447C99.6946 9.52413 99.3549 10.4864 99.3549 11.6912C99.3549 12.8961 99.6905 13.8583 100.362 14.578C101.041 15.2896 101.947 15.6453 103.079 15.6453C104.033 15.6453 104.826 15.3947 105.456 14.8933C106.095 14.3839 106.447 13.7289 106.512 12.9284H111.206Z" fill="#737380"/>
<path d="M117.563 9.96887L124.258 9.981C124.186 9.14813 123.85 8.49315 123.252 8.01607C122.653 7.53898 121.873 7.30044 120.91 7.30044C119.956 7.30044 119.176 7.54303 118.569 8.0282C117.971 8.50528 117.635 9.15217 117.563 9.96887ZM128.637 14.0322C128.088 15.5685 127.133 16.7572 125.775 17.5982C124.416 18.431 122.762 18.8475 120.813 18.8475C118.339 18.8475 116.378 18.2046 114.93 16.9189C113.491 15.6251 112.771 13.8745 112.771 11.667C112.771 9.45944 113.491 7.71688 114.93 6.43927C116.37 5.15357 118.331 4.51072 120.813 4.51072C123.393 4.51072 125.378 5.17783 126.769 6.51204C128.168 7.83817 128.868 9.73033 128.868 12.1885V12.7586H117.441C117.465 13.737 117.781 14.5173 118.387 15.0995C119.002 15.6736 119.811 15.9607 120.813 15.9607C121.598 15.9607 122.273 15.7949 122.839 15.4634C123.405 15.1238 123.814 14.6467 124.064 14.0322H128.637Z" fill="#737380"/>
<path d="M135.957 11.2772V11.0371C135.957 10.4601 136.037 9.95392 136.197 9.51843C136.357 9.08293 136.612 8.68279 136.962 8.31802C137.167 8.09468 138.012 7.59777 139.497 6.82728L139.648 6.74911C139.681 6.7305 139.732 6.70444 139.799 6.67094C140.551 6.28756 140.927 5.9172 140.927 5.55987C140.927 5.26954 140.811 5.04807 140.58 4.89546C140.35 4.74285 140.013 4.66654 139.57 4.66654C139.071 4.66654 138.693 4.78379 138.436 5.01829C138.183 5.24906 138.049 5.59709 138.034 6.06236H135.979C135.994 5.09832 136.314 4.34829 136.94 3.8123C137.565 3.2763 138.438 3.0083 139.559 3.0083C140.668 3.0083 141.528 3.22791 142.138 3.66713C142.749 4.10263 143.054 4.71493 143.054 5.50403C143.054 6.00281 142.905 6.44203 142.607 6.82169C142.31 7.19764 141.814 7.56985 141.122 7.93835C140.873 8.06863 140.536 8.24171 140.111 8.4576C139.091 8.97498 138.552 9.34348 138.492 9.56309H142.898V11.2772H135.957Z" fill="#737380"/>
<path d="M146.136 7.25161C146.136 8.0891 146.285 8.73118 146.583 9.17784C146.881 9.62451 147.305 9.84784 147.856 9.84784C148.403 9.84784 148.824 9.62451 149.118 9.17784C149.412 8.73118 149.559 8.0891 149.559 7.25161C149.559 6.41411 149.412 5.77203 149.118 5.32537C148.824 4.87871 148.403 4.65537 147.856 4.65537C147.305 4.65537 146.881 4.88057 146.583 5.33095C146.285 5.77762 146.136 6.41783 146.136 7.25161ZM144.126 7.25161C144.126 5.90789 144.448 4.86754 145.092 4.13054C145.74 3.38983 146.652 3.01947 147.828 3.01947C149.023 3.01947 149.944 3.38797 150.592 4.12496C151.244 4.85823 151.569 5.90045 151.569 7.25161C151.569 8.60649 151.244 9.65242 150.592 10.3894C149.944 11.1264 149.023 11.4949 147.828 11.4949C146.656 11.4949 145.745 11.1246 145.098 10.3838C144.45 9.6394 144.126 8.59532 144.126 7.25161Z" fill="#737380"/>
</svg>

<svg width="152" height="19" fill="none" xmlns="http://www.w3.org/2000/svg"><path d="M4.593 3.65H.47V.435h4.124V3.65ZM.47 18.374V4.984h4.124v13.39H.47ZM8.244 18.374V4.984h4.149v2.013c.736-.784 1.54-1.374 2.414-1.77a6.702 6.702 0 0 1 2.802-.595c1.124 0 2.11.186 2.96.558.849.372 1.504.902 1.965 1.589.283.428.485.934.606 1.516.122.574.182 1.476.182 2.705v7.374h-4.148v-6.489c0-1.496-.219-2.523-.655-3.08-.429-.558-1.177-.837-2.244-.837-1.205 0-2.156.34-2.851 1.018-.688.672-1.031 1.597-1.031 2.778v6.61H8.244ZM27.726 1.454h4.148v3.53h3.105v3.153h-3.105v5.665c0 .89.077 1.415.23 1.577.162.161.542.242 1.14.242h1.735v3.226h-2.802c-1.593 0-2.733-.25-3.42-.752-.688-.509-1.032-1.334-1.032-2.474V8.137h-1.952V4.984h1.953v-3.53ZM41.02 9.969l6.696.012c-.072-.833-.408-1.488-1.007-1.965-.598-.477-1.378-.716-2.34-.716-.955 0-1.735.243-2.342.728-.598.477-.934 1.124-1.007 1.94Zm11.075 4.063c-.55 1.537-1.504 2.725-2.862 3.566-1.359.833-3.013 1.25-4.962 1.25-2.474 0-4.435-.643-5.883-1.93-1.44-1.293-2.16-3.043-2.16-5.251s.72-3.95 2.16-5.228c1.44-1.285 3.4-1.928 5.883-1.928 2.58 0 4.565.667 5.956 2.001 1.4 1.326 2.099 3.218 2.099 5.676v.57H40.899c.024.979.34 1.76.946 2.342.615.574 1.424.86 2.426.86.785 0 1.46-.165 2.026-.497.566-.34.975-.816 1.225-1.43h4.573ZM58.973 18.374h-4.148V4.984h4.148v1.77c.631-.76 1.278-1.321 1.941-1.685a4.294 4.294 0 0 1 2.11-.558c.146 0 .425.024.838.072.145.009.254.017.327.025v3.53a6.704 6.704 0 0 0-.473-.037 20.523 20.523 0 0 0-.837-.012c-1.213 0-2.167.38-2.863 1.14-.695.76-1.043 1.811-1.043 3.154v5.991ZM67.853 18.374V8.137H65.9V4.984h1.953V3.65c0-1.149.34-1.97 1.019-2.463.687-.501 1.831-.752 3.432-.752h2.802V3.65h-1.734c-.558 0-.926.072-1.104.218-.178.137-.267.412-.267.825v.29h3.105v3.154h-3.105v10.237h-4.148ZM88.292 11.922c-.517.283-1.508.497-2.972.643-.178.024-.311.04-.4.048-1.56.162-2.547.36-2.96.594-.412.235-.619.599-.619 1.092 0 .518.203.934.607 1.25.412.307.958.46 1.638.46 1.407 0 2.547-.335 3.42-1.007.882-.67 1.323-1.544 1.323-2.62 0-.129-.004-.226-.013-.29a.537.537 0 0 0-.024-.17Zm4.052 4.293c0 .526.048.93.145 1.213.097.275.259.49.485.643v.303h-4.573l-.206-1.467a6.928 6.928 0 0 1-2.438 1.467c-.906.316-1.953.474-3.142.474-1.844 0-3.295-.4-4.355-1.201-1.059-.8-1.589-1.884-1.589-3.251 0-1.27.477-2.216 1.432-2.838.954-.63 2.592-1.043 4.912-1.237.308-.025.736-.053 1.286-.085 2.669-.186 4.003-.704 4.003-1.553 0-.51-.258-.89-.776-1.14-.51-.25-1.278-.376-2.305-.376-1.035 0-1.795.182-2.28.546-.486.356-.736.918-.752 1.686l-4.331.012v-.049c0-1.576.651-2.777 1.953-3.602 1.302-.833 3.186-1.25 5.653-1.25 1.213 0 2.284.122 3.214.365.938.234 1.723.586 2.354 1.055.477.364.812.825 1.006 1.383.203.55.304 1.386.304 2.51v6.392ZM111.206 12.928c-.137 1.763-.954 3.19-2.45 4.282-1.496 1.092-3.405 1.637-5.726 1.637-2.458 0-4.435-.655-5.931-1.965-1.488-1.31-2.232-3.048-2.232-5.215 0-2.216.752-3.962 2.256-5.24 1.512-1.277 3.582-1.916 6.211-1.916 2.272 0 4.071.485 5.398 1.455 1.326.962 2.102 2.35 2.329 4.16h-4.573c-.114-.776-.465-1.37-1.056-1.782-.582-.42-1.366-.631-2.353-.631-1.124 0-2.026.364-2.705 1.091-.68.72-1.02 1.682-1.02 2.887s.337 2.167 1.008 2.887c.679.712 1.585 1.067 2.717 1.067.954 0 1.747-.25 2.377-.752.639-.51.991-1.164 1.056-1.965h4.694ZM117.563 9.969l6.695.012c-.072-.833-.408-1.488-1.006-1.965-.599-.477-1.379-.716-2.342-.716-.954 0-1.734.243-2.341.728-.598.477-.934 1.124-1.006 1.94Zm11.074 4.063c-.549 1.537-1.504 2.725-2.862 3.566-1.359.833-3.013 1.25-4.962 1.25-2.474 0-4.435-.643-5.883-1.93-1.439-1.293-2.159-3.043-2.159-5.251s.72-3.95 2.159-5.228c1.44-1.285 3.401-1.928 5.883-1.928 2.58 0 4.565.667 5.956 2.001 1.399 1.326 2.099 3.218 2.099 5.676v.57h-11.427c.024.979.34 1.76.946 2.342.615.574 1.424.86 2.426.86.785 0 1.46-.165 2.026-.497.566-.34.975-.816 1.225-1.43h4.573ZM135.957 11.277v-.24c0-.577.08-1.083.24-1.519.16-.435.415-.835.765-1.2.205-.223 1.05-.72 2.535-1.49l.151-.079c.033-.018.084-.045.151-.078.752-.383 1.128-.754 1.128-1.111a.748.748 0 0 0-.347-.665c-.23-.152-.567-.228-1.01-.228-.499 0-.877.117-1.134.351-.253.231-.387.58-.402 1.044h-2.055c.015-.964.335-1.714.961-2.25.625-.536 1.498-.804 2.619-.804 1.109 0 1.969.22 2.579.66.611.435.916 1.047.916 1.836 0 .499-.149.938-.447 1.318-.297.376-.793.748-1.485 1.116-.249.13-.586.304-1.011.52-1.02.517-1.559.885-1.619 1.105h4.406v1.714h-6.941ZM146.136 7.252c0 .837.149 1.48.447 1.926.298.447.722.67 1.273.67.547 0 .968-.223 1.262-.67.294-.447.441-1.089.441-1.926 0-.838-.147-1.48-.441-1.927-.294-.446-.715-.67-1.262-.67-.551 0-.975.226-1.273.676-.298.447-.447 1.087-.447 1.92Zm-2.01 0c0-1.344.322-2.384.966-3.121.648-.741 1.56-1.112 2.736-1.112 1.195 0 2.116.369 2.764 1.106.652.733.977 1.775.977 3.127 0 1.354-.325 2.4-.977 3.137-.648.737-1.569 1.106-2.764 1.106-1.172 0-2.083-.37-2.73-1.111-.648-.745-.972-1.789-.972-3.132Z" fill="#737380"/></svg>
